usr/share/icons/biglinux-icons-material/scalable/apps/preferences-desktop-display-nightcolor.svg

<svg xmlns="http://www.w3.org/2000/svg" xml:space="preserve" width="24" height="24"><defs><clipPath id="a" clipPathUnits="userSpaceOnUse"><path d="M-22.543-286.093h280.477V-99.11H-22.543Z"/></clipPath><clipPath id="c" clipPathUnits="userSpaceOnUse"><path d="M444.944-728.121h176.722v353.444H444.944Z"/></clipPath><clipPath id="i" clipPathUnits="userSpaceOnUse"><path d="M0 0h19v19H0Z"/></clipPath><clipPath id="j" clipPathUnits="userSpaceOnUse"><path d="m6.707 11.402.703-2.468 3.902 2.468Z"/></clipPath><clipPath id="e" clipPathUnits="userSpaceOnUse"><path d="M-22.543-286.093h280.477V-99.11H-22.543Z"/></clipPath><clipPath id="m" clipPathUnits="userSpaceOnUse"><path d="M0 0h19v19H0Z"/></clipPath><clipPath id="n" clipPathUnits="userSpaceOnUse"><path d="M9.199 10.066v1.336h.227v-1.191z"/></clipPath><clipPath id="f" clipPathUnits="userSpaceOnUse"><path d="M444.944-728.121h176.722v353.444H444.944Z"/></clipPath><linearGradient id="h" x1="-240.47" x2="-240.47" y1="-60.605" y2="-29.026" gradientTransform="matrix(.18118 0 0 .17805 52.192 15.631)" gradientUnits="userSpaceOnUse" spreadMethod="pad"><stop offset="0" style="stop-opacity:1;stop-color:#2a3f4d"/><stop offset="1" style="stop-opacity:1;stop-color:#131f2c"/></linearGradient><linearGradient id="b" x1="10.583" x2="225.69" y1="-184.68" y2="-184.68" gradientUnits="userSpaceOnUse" spreadMethod="pad"><stop offset="0" style="stop-opacity:1;stop-color:#fff"/><stop offset="1" style="stop-opacity:0;stop-color:#fff"/></linearGradient><linearGradient id="l" x1="10.583" x2="225.69" y1="-184.68" y2="-184.68" gradientUnits="userSpaceOnUse" spreadMethod="pad"><stop offset="0" style="stop-opacity:1;stop-color:#fafbfb"/><stop offset="1" style="stop-opacity:1;stop-color:#fafbfb"/></linearGradient><linearGradient id="d" x1="520" x2="410" y1="-620" y2="-620" gradientUnits="userSpaceOnUse" spreadMethod="pad"><stop offset="0" style="stop-opacity:1;stop-color:#fff"/><stop offset="1" style="stop-opacity:0;stop-color:#fff"/></linearGradient><linearGradient id="p" x1="520" x2="410" y1="-620" y2="-620" gradientUnits="userSpaceOnUse" spreadMethod="pad"><stop offset="0" style="stop-opacity:1;stop-color:#000"/><stop offset="1" style="stop-opacity:1;stop-color:#000"/></linearGradient><mask id="k" width="1" height="1" x="0" y="0" maskUnits="userSpaceOnUse"><g clip-path="url(#e)"><path d="M-22.543-286.093h280.477V-99.11H-22.543Z" style="fill:url(#b);stroke:none"/></g></mask><mask id="o" width="1" height="1" x="0" y="0" maskUnits="userSpaceOnUse"><g clip-path="url(#f)"><path d="M444.944-728.121h176.722v353.444H444.944Z" style="fill:url(#d);stroke:none"/></g></mask><radialGradient id="g" cx="0" cy="0" r="1" fx="0" fy="0" gradientTransform="matrix(0 16.5 -16.5 0 9 .75)" gradientUnits="userSpaceOnUse" spreadMethod="pad"><stop offset="0" style="stop-opacity:1;stop-color:#a4a4a4"/><stop offset="1" style="stop-opacity:1;stop-color:#626262"/></radialGradient></defs><path d="M7.195.836c.09 0 .176-.012.258-.035a23.86 23.86 0 0 1 3.231.008 10.26 10.26 0 0 1 2.836.636c1.519.625 2.558 1.711 3.121 3.254.316.93.507 1.887.566 2.867a21.227 21.227 0 0 1-.086 3.696 8.976 8.976 0 0 1-.672 2.488c-.637 1.383-1.672 2.336-3.101 2.859a11.693 11.693 0 0 1-3.575.618 15.998 15.998 0 0 1-4.089-.309c-2.481-.551-4.016-2.066-4.594-4.543a14.244 14.244 0 0 1-.336-3.383c-.027-1.215.101-2.41.387-3.59.609-2.312 2.078-3.746 4.406-4.3A10.27 10.27 0 0 1 7.195.836Z" style="fill:url(#g);fill-rule:evenodd;stroke:none" transform="matrix(1.33333 0 0 1.33333 0 0)"/><path d="m9 10.297-1.73 1.301c0 1.511-.215 1.511-1.297 2.164L9 13.977l3.027-.219c-1.082-.649-1.297-.649-1.297-2.16Z" style="fill:#b3b3b3;fill-opacity:1;fill-rule:nonzero;stroke:none" transform="matrix(1.33333 0 0 1.33333 0 0)"/><path d="M5.973 13.758h6.055v.434H5.973Z" style="fill:#ccc;fill-opacity:1;fill-rule:nonzero;stroke:none" transform="matrix(1.33333 0 0 1.33333 0 0)"/><path d="M4.254 4.074h9.492c.484 0 .879.395.879.883v5.766a.878.878 0 0 1-.879.879H4.254a.878.878 0 0 1-.879-.879V4.957c0-.488.395-.883.879-.883z" style="fill:#303030;fill-opacity:1;fill-rule:nonzero;stroke:none" transform="matrix(1.33333 0 0 1.33333 0 0)"/><path d="M4.312 4.277h9.376a.74.74 0 0 1 .746.739v5.648a.738.738 0 0 1-.746.734H4.312a.738.738 0 0 1-.746-.734V5.016a.74.74 0 0 1 .746-.739z" style="fill:url(#h);stroke:none" transform="matrix(1.33333 0 0 1.33333 0 0)"/><path d="m7.613 10.723 2.719-2.942 2.262 2.942z" style="fill:#1a1a1a;fill-opacity:1;fill-rule:nonzero;stroke:none" transform="matrix(1.33333 0 0 1.33333 0 0)"/><g clip-path="url(#i)" opacity=".9" transform="matrix(1.33333 0 0 1.33333 0 0)"><path d="M7.41 8.934 3.836 11.23a.765.765 0 0 0 .48.172h6.993z" style="fill:#e6e6e6;fill-opacity:1;fill-rule:nonzero;stroke:none"/></g><path d="m6.707 11.402.703-2.468 3.902 2.468Z" style="fill:#fafbfb;fill-opacity:1;fill-rule:nonzero;stroke:none" transform="matrix(1.33333 0 0 1.33333 0 0)"/><path d="m10.332 7.555-.906.961v2.886h4.258c.207 0 .39-.078.527-.211z" style="fill:#b0b2b5;fill-opacity:1;fill-rule:nonzero;stroke:none" transform="matrix(1.33333 0 0 1.33333 0 0)"/><path d="m10.332 7.555 1.133 3.847h2.219c.207 0 .39-.078.527-.211z" style="fill:#fff;fill-opacity:1;fill-rule:nonzero;stroke:none" transform="matrix(1.33333 0 0 1.33333 0 0)"/><g clip-path="url(#j)" transform="matrix(1.33333 0 0 1.33333 0 0)"><g mask="url(#k)" transform="matrix(.0214 0 0 .0214 6.482 14.12)"><path d="m6.707 11.402.703-2.468 3.902 2.468Z" style="fill:url(#l);stroke:none"/></g></g><g clip-path="url(#m)" opacity=".35" transform="matrix(1.33333 0 0 1.33333 0 0)"><g clip-path="url(#n)"><g mask="url(#o)" transform="matrix(.00566 0 0 .00566 6.482 14.12)"><path d="M9.199 10.066v1.336h.227v-1.191z" style="fill:url(#p);stroke:none"/></g></g></g><path d="M13.109 4.883a1.592 1.592 0 0 1-2.175 2.023 1.59 1.59 0 1 0 2.175-2.023ZM6.215 4.402l-.027.707-.043.071-.071.039-.707.031.707.031.071.039.043.075.027.703.031-.703.039-.075.074-.039.707-.031-.707-.031-.074-.039-.039-.071ZM10.312 4.891l-.031.703-.039.074-.07.039-.707.031.707.032.07.039.039.074.031.703.032-.703.039-.074.074-.039.703-.032-.703-.031-.074-.039-.039-.074ZM7.625 5.695l-.031.703-.039.075-.075.039-.703.031.703.031.075.039.039.071.031.707.031-.707.039-.071.075-.039.703-.031-.703-.031-.075-.039-.039-.075ZM5.043 6.602l-.031.703-.039.074-.075.039-.703.031.703.031.075.04.039.07.031.707.031-.707.039-.07.075-.04.703-.031-.703-.031-.075-.039-.039-.074Z" style="fill:#edeef0;fill-opacity:1;fill-rule:nonzero;stroke:none" transform="matrix(1.33333 0 0 1.33333 0 0)"/></svg>

<?xml version="1.0" encoding="UTF-8" standalone="no"?>
<svg
   width="24"
   height="24"
   version="1.1"
   id="svg13090"
   sodipodi:docname="preferences-desktop-display-nightcolor.svg"
   xml:space="preserve"
   inkscape:version="1.2.2 (b0a8486541, 2022-12-01)"
   inkscape:export-filename="preferences-desktop-display-nightcolor.pdf"
   inkscape:export-xdpi="512"
   inkscape:export-ydpi="512"
   xmlns:inkscape="http://www.inkscape.org/namespaces/inkscape"
   xmlns:sodipodi="http://sodipodi.sourceforge.net/DTD/sodipodi-0.dtd"
   xmlns="http://www.w3.org/2000/svg"
   xmlns:svg="http://www.w3.org/2000/svg"><defs
     id="defs13094"><radialGradient
       fx="0"
       fy="0"
       cx="0"
       cy="0"
       r="1"
       gradientUnits="userSpaceOnUse"
       gradientTransform="matrix(0,22.000002,-22.000002,0,11.999545,0.99996354)"
       spreadMethod="pad"
       id="radialGradient12763-3"><stop
         style="stop-opacity:1;stop-color:#a4a4a4"
         offset="0"
         id="stop12759-6" /><stop
         style="stop-opacity:1;stop-color:#626262"
         offset="1"
         id="stop12761-7" /></radialGradient><radialGradient
       id="paint0_radial_29_149"
       cx="0"
       cy="0"
       r="1"
       gradientUnits="userSpaceOnUse"
       gradientTransform="matrix(0,31.999991,-32.000024,0,72.000019,2.1748198e-6)"><stop
         stop-color="#80D2FF"
         id="stop17930" /><stop
         offset="1"
         stop-color="#2991C9"
         id="stop17932"
         style="stop-color:#002a43;stop-opacity:1;" /></radialGradient><radialGradient
       id="paint0_radial_29_149-3"
       cx="0"
       cy="0"
       r="1"
       gradientUnits="userSpaceOnUse"
       gradientTransform="matrix(0,31.999965,-32.000018,0,141.21699,-14.468428)"><stop
         stop-color="#80D2FF"
         id="stop17930-6" /><stop
         offset="1"
         stop-color="#2991C9"
         id="stop17932-7"
         style="stop-color:#002a43;stop-opacity:1;" /></radialGradient><radialGradient
       id="paint0_radial_29_23"
       cx="0"
       cy="0"
       r="1"
       gradientUnits="userSpaceOnUse"
       gradientTransform="matrix(0,22.000031,-22.000031,0,11.999983,1.000049)"><stop
         stop-color="#8FC8FF"
         id="stop184"
         offset="0"
         style="stop-color:#ffffff;stop-opacity:1;" /><stop
         offset="1"
         stop-color="#0056A8"
         id="stop186"
         style="stop-color:#bebebe;stop-opacity:1;" /></radialGradient><radialGradient
       id="paint0_radial_29_149-5"
       cx="0"
       cy="0"
       r="1"
       gradientUnits="userSpaceOnUse"
       gradientTransform="matrix(0,150,-150,0,-278.33746,-123.84153)"><stop
         stop-color="#80D2FF"
         id="stop17930-62" /><stop
         offset="1"
         stop-color="#2991C9"
         id="stop17932-9"
         style="stop-color:#0083d0;stop-opacity:1;" /></radialGradient><linearGradient
       id="a"
       x1="-240.47"
       x2="-240.47"
       y1="-60.605"
       y2="-29.025999"
       gradientTransform="matrix(0.96667,0,0,0.95,262.45,67.575)"
       gradientUnits="userSpaceOnUse"><stop
         stop-color="#4285db"
         offset="0"
         id="stop13351"
         style="stop-color:#2a3f4d;stop-opacity:1;" /><stop
         stop-color="#42b9db"
         offset="1"
         id="stop13353"
         style="stop-color:#131f2c;stop-opacity:1;" /></linearGradient><linearGradient
       id="b"
       x1="10.583"
       x2="225.69"
       y1="-184.67999"
       y2="-184.67999"
       gradientTransform="matrix(0.11417,0,0,0.11417,18.557,59.5)"
       gradientUnits="userSpaceOnUse"><stop
         stop-color="#fafbfb"
         offset="0"
         id="stop13356" /><stop
         stop-color="#fafbfb"
         stop-opacity="0"
         offset="1"
         id="stop13358" /></linearGradient><linearGradient
       id="c"
       x1="520"
       x2="410"
       y1="-620"
       y2="-620"
       gradientTransform="matrix(0.0302,0,0,0.0302,18.557,59.5)"
       gradientUnits="userSpaceOnUse"><stop
         offset="0"
         id="stop13361" /><stop
         stop-opacity="0"
         offset="1"
         id="stop13363" /></linearGradient><radialGradient
       fx="0"
       fy="0"
       cx="0"
       cy="0"
       r="1"
       gradientUnits="userSpaceOnUse"
       gradientTransform="matrix(0,16.500002,-16.500002,0,8.999659,0.749973)"
       spreadMethod="pad"
       id="radialGradient69034"><stop
         style="stop-opacity:1;stop-color:#a4a4a4"
         offset="0"
         id="stop69030" /><stop
         style="stop-opacity:1;stop-color:#626262"
         offset="1"
         id="stop69032" /></radialGradient><linearGradient
       x1="-240.47"
       y1="-60.605"
       x2="-240.47"
       y2="-29.025999"
       gradientUnits="userSpaceOnUse"
       gradientTransform="matrix(0.18118,0,0,0.178055,52.192432,15.631391)"
       spreadMethod="pad"
       id="linearGradient69058"><stop
         style="stop-opacity:1;stop-color:#2a3f4d"
         offset="0"
         id="stop69054" /><stop
         style="stop-opacity:1;stop-color:#131f2c"
         offset="1"
         id="stop69056" /></linearGradient><clipPath
       clipPathUnits="userSpaceOnUse"
       id="clipPath69070"><path
         d="M 0,0 H 19 V 19 H 0 Z"
         id="path69068" /></clipPath><clipPath
       clipPathUnits="userSpaceOnUse"
       id="clipPath69092"><path
         d="M 6.707,11.402 7.41,8.934 11.312,11.402 Z"
         id="path69090" /></clipPath><clipPath
       clipPathUnits="userSpaceOnUse"
       id="clipPath69100"><path
         d="M -22.542835,-286.09332 H 257.93384 V -99.108872 H -22.542835 Z"
         id="path69098" /></clipPath><linearGradient
       x1="10.583"
       y1="-184.67999"
       x2="225.69"
       y2="-184.67999"
       gradientUnits="userSpaceOnUse"
       spreadMethod="pad"
       id="linearGradient69106"><stop
         style="stop-opacity:1;stop-color:#ffffff"
         offset="0"
         id="stop69102" /><stop
         style="stop-opacity:0;stop-color:#ffffff"
         offset="1"
         id="stop69104" /></linearGradient><mask
       maskUnits="userSpaceOnUse"
       x="0"
       y="0"
       width="1"
       height="1"
       id="mask69108"><g
         id="g69114"><g
           clip-path="url(#clipPath69100)"
           id="g69112"><path
             d="M -22.542835,-286.09332 H 257.93384 V -99.108872 H -22.542835 Z"
             style="fill:url(#linearGradient69106);stroke:none"
             id="path69110" /></g></g></mask><linearGradient
       x1="10.583"
       y1="-184.67999"
       x2="225.69"
       y2="-184.67999"
       gradientUnits="userSpaceOnUse"
       spreadMethod="pad"
       id="linearGradient69122"><stop
         style="stop-opacity:1;stop-color:#fafbfb"
         offset="0"
         id="stop69118" /><stop
         style="stop-opacity:1;stop-color:#fafbfb"
         offset="1"
         id="stop69120" /></linearGradient><clipPath
       clipPathUnits="userSpaceOnUse"
       id="clipPath69132"><path
         d="M 0,0 H 19 V 19 H 0 Z"
         id="path69130" /></clipPath><clipPath
       clipPathUnits="userSpaceOnUse"
       id="clipPath69136"><path
         d="m 9.199,10.066 v 1.336 h 0.227 v -1.191 z"
         id="path69134" /></clipPath><clipPath
       clipPathUnits="userSpaceOnUse"
       id="clipPath69140"><path
         d="m 444.94356,-728.12143 h 176.72198 v 353.44395 H 444.94356 Z"
         id="path69138" /></clipPath><linearGradient
       x1="520"
       y1="-620"
       x2="410"
       y2="-620"
       gradientUnits="userSpaceOnUse"
       spreadMethod="pad"
       id="linearGradient69146"><stop
         style="stop-opacity:1;stop-color:#ffffff"
         offset="0"
         id="stop69142" /><stop
         style="stop-opacity:0;stop-color:#ffffff"
         offset="1"
         id="stop69144" /></linearGradient><mask
       maskUnits="userSpaceOnUse"
       x="0"
       y="0"
       width="1"
       height="1"
       id="mask69148"><g
         id="g69154"><g
           clip-path="url(#clipPath69140)"
           id="g69152"><path
             d="m 444.94356,-728.12143 h 176.72198 v 353.44395 H 444.94356 Z"
             style="fill:url(#linearGradient69146);stroke:none"
             id="path69150" /></g></g></mask><linearGradient
       x1="520"
       y1="-620"
       x2="410"
       y2="-620"
       gradientUnits="userSpaceOnUse"
       spreadMethod="pad"
       id="linearGradient69160"><stop
         style="stop-opacity:1;stop-color:#000000"
         offset="0"
         id="stop69156" /><stop
         style="stop-opacity:1;stop-color:#000000"
         offset="1"
         id="stop69158" /></linearGradient><radialGradient
       fx="0"
       fy="0"
       cx="0"
       cy="0"
       r="1"
       gradientUnits="userSpaceOnUse"
       gradientTransform="matrix(0,16.500002,-16.500002,0,8.999659,0.749973)"
       spreadMethod="pad"
       id="radialGradient69034-3"><stop
         style="stop-opacity:1;stop-color:#a4a4a4"
         offset="0"
         id="stop69030-9" /><stop
         style="stop-opacity:1;stop-color:#626262"
         offset="1"
         id="stop69032-4" /></radialGradient><clipPath
       clipPathUnits="userSpaceOnUse"
       id="clipPath69070-2"><path
         d="M 0,0 H 19 V 19 H 0 Z"
         id="path69068-9" /></clipPath><clipPath
       clipPathUnits="userSpaceOnUse"
       id="clipPath69092-3"><path
         d="M 6.707,11.402 7.41,8.934 11.312,11.402 Z"
         id="path69090-9" /></clipPath><mask
       maskUnits="userSpaceOnUse"
       x="0"
       y="0"
       width="1"
       height="1"
       id="mask69108-0"><g
         id="g69114-8"><g
           clip-path="url(#clipPath69100-0)"
           id="g69112-8"><path
             d="M -22.542835,-286.09332 H 257.93384 V -99.108872 H -22.542835 Z"
             style="fill:url(#linearGradient69106);stroke:none"
             id="path69110-5" /></g></g></mask><clipPath
       clipPathUnits="userSpaceOnUse"
       id="clipPath69100-0"><path
         d="M -22.542835,-286.09332 H 257.93384 V -99.108872 H -22.542835 Z"
         id="path69098-9" /></clipPath><clipPath
       clipPathUnits="userSpaceOnUse"
       id="clipPath69132-6"><path
         d="M 0,0 H 19 V 19 H 0 Z"
         id="path69130-1" /></clipPath><clipPath
       clipPathUnits="userSpaceOnUse"
       id="clipPath69136-1"><path
         d="m 9.199,10.066 v 1.336 h 0.227 v -1.191 z"
         id="path69134-5" /></clipPath><mask
       maskUnits="userSpaceOnUse"
       x="0"
       y="0"
       width="1"
       height="1"
       id="mask69148-9"><g
         id="g69154-8"><g
           clip-path="url(#clipPath69140-1)"
           id="g69152-4"><path
             d="m 444.94356,-728.12143 h 176.72198 v 353.44395 H 444.94356 Z"
             style="fill:url(#linearGradient69146);stroke:none"
             id="path69150-8" /></g></g></mask><clipPath
       clipPathUnits="userSpaceOnUse"
       id="clipPath69140-1"><path
         d="m 444.94356,-728.12143 h 176.72198 v 353.44395 H 444.94356 Z"
         id="path69138-0" /></clipPath></defs><sodipodi:namedview
     id="namedview13092"
     pagecolor="#ffffff"
     bordercolor="#000000"
     borderopacity="0.25"
     inkscape:showpageshadow="2"
     inkscape:pageopacity="0.0"
     inkscape:pagecheckerboard="0"
     inkscape:deskcolor="#d1d1d1"
     showgrid="false"
     inkscape:zoom="19.312854"
     inkscape:cx="7.8186269"
     inkscape:cy="10.433466"
     inkscape:window-width="2560"
     inkscape:window-height="1000"
     inkscape:window-x="1680"
     inkscape:window-y="0"
     inkscape:window-maximized="1"
     inkscape:current-layer="svg13090" /><g
     id="g69018"
     transform="matrix(1.3333333,0,0,1.3333333,-4.5225532e-4,-3.504174e-5)"><g
       id="g69020"><g
         id="g69022"><g
           id="g69028"><path
             d="m 7.195,0.836 c 0.09,0 0.176,-0.012 0.258,-0.035 1.078,-0.071 2.156,-0.067 3.231,0.008 0.976,0.078 1.921,0.289 2.836,0.636 1.519,0.625 2.558,1.711 3.121,3.254 0.316,0.93 0.507,1.887 0.566,2.867 0.078,1.235 0.051,2.465 -0.086,3.696 -0.105,0.863 -0.328,1.691 -0.672,2.488 -0.637,1.383 -1.672,2.336 -3.101,2.859 C 12.191,17 11,17.207 9.773,17.227 8.398,17.301 7.035,17.195 5.684,16.918 3.203,16.367 1.668,14.852 1.09,12.375 0.844,11.262 0.73,10.133 0.754,8.992 0.727,7.777 0.855,6.582 1.141,5.402 1.75,3.09 3.219,1.656 5.547,1.102 6.09,0.969 6.641,0.879 7.195,0.836 Z"
             style="fill:url(#radialGradient69034-3);fill-rule:evenodd;stroke:none"
             id="path69036" /></g></g></g><path
       d="m 9,10.297 -1.73,1.301 c 0,1.511 -0.215,1.511 -1.297,2.164 L 9,13.977 12.027,13.758 C 10.945,13.109 10.73,13.109 10.73,11.598 Z"
       style="fill:#b3b3b3;fill-opacity:1;fill-rule:nonzero;stroke:none"
       id="path69038" /><path
       d="m 5.973,13.758 h 6.055 v 0.434 H 5.973 Z"
       style="fill:#cccccc;fill-opacity:1;fill-rule:nonzero;stroke:none"
       id="path69040" /><path
       d="m 4.254,4.074 h 9.492 c 0.484,0 0.879,0.395 0.879,0.883 v 5.766 c 0,0.488 -0.395,0.879 -0.879,0.879 H 4.254 c -0.484,0 -0.879,-0.391 -0.879,-0.879 V 4.957 c 0,-0.488 0.395,-0.883 0.879,-0.883 z"
       style="fill:#303030;fill-opacity:1;fill-rule:nonzero;stroke:none"
       id="path69042" /><g
       id="g69044"><g
         id="g69046"><g
           id="g69052"><path
             d="m 4.312,4.277 h 9.376 c 0.414,0 0.746,0.328 0.746,0.739 v 5.648 c 0,0.406 -0.332,0.734 -0.746,0.734 H 4.312 c -0.414,0 -0.746,-0.328 -0.746,-0.734 V 5.016 c 0,-0.411 0.332,-0.739 0.746,-0.739 z"
             style="fill:url(#linearGradient69058);stroke:none"
             id="path69060" /></g></g></g><path
       d="m 7.613,10.723 2.719,-2.942 2.262,2.942 z"
       style="fill:#1a1a1a;fill-opacity:1;fill-rule:nonzero;stroke:none"
       id="path69062" /><g
       id="g69064"><g
         id="g69066" /><g
         id="g69078"><g
           clip-path="url(#clipPath69070-2)"
           opacity="0.9"
           id="g69076"><g
             id="g69074"><path
               d="M 7.41,8.934 3.836,11.23 c 0.133,0.106 0.297,0.172 0.48,0.172 h 6.993 z"
               style="fill:#e6e6e6;fill-opacity:1;fill-rule:nonzero;stroke:none"
               id="path69072" /></g></g></g></g><path
       d="M 6.707,11.402 7.41,8.934 11.312,11.402 Z"
       style="fill:#fafbfb;fill-opacity:1;fill-rule:nonzero;stroke:none"
       id="path69080" /><path
       d="M 10.332,7.555 9.426,8.516 v 2.886 h 4.258 c 0.207,0 0.39,-0.078 0.527,-0.211 z"
       style="fill:#b0b2b5;fill-opacity:1;fill-rule:nonzero;stroke:none"
       id="path69082" /><path
       d="m 10.332,7.555 1.133,3.847 h 2.219 c 0.207,0 0.39,-0.078 0.527,-0.211 z"
       style="fill:#ffffff;fill-opacity:1;fill-rule:nonzero;stroke:none"
       id="path69084" /><g
       id="g69086"><g
         id="g69088"
         clip-path="url(#clipPath69092-3)"><g
           id="g69094"
           transform="matrix(0.0213922,0,0,0.0213922,6.48224,14.120152)"><g
             id="g69096" /><g
             id="g69116"
             mask="url(#mask69108-0)"><path
               d="M 6.707,11.402 7.41,8.934 11.312,11.402 Z"
               style="fill:url(#linearGradient69122);stroke:none"
               id="path69124" /></g></g></g></g><g
       id="g69126"><g
         id="g69128" /><g
         id="g69178"><g
           clip-path="url(#clipPath69132-6)"
           opacity="0.35"
           id="g69176"><g
             id="g69174"><g
               id="g69172"><g
                 clip-path="url(#clipPath69136-1)"
                 id="g69170"><g
                   transform="matrix(0.00565861,0,0,0.00565861,6.48224,14.120152)"
                   id="g69168"><g
                     id="g69162" /><g
                     mask="url(#mask69148-9)"
                     id="g69166"><path
                       d="m 9.199,10.066 v 1.336 h 0.227 v -1.191 z"
                       style="fill:url(#linearGradient69160);stroke:none"
                       id="path69164" /></g></g></g></g></g></g></g></g><path
       d="m 13.109,4.883 c 0.075,0.187 0.114,0.39 0.114,0.594 0,0.878 -0.715,1.589 -1.594,1.589 -0.238,0 -0.477,-0.054 -0.695,-0.16 0.242,0.602 0.824,0.996 1.472,0.996 C 13.289,7.902 14,7.191 14,6.312 14,5.703 13.652,5.148 13.109,4.883 Z"
       style="fill:#edeef0;fill-opacity:1;fill-rule:nonzero;stroke:none"
       id="path69180" /><path
       d="M 6.215,4.402 6.188,5.109 6.145,5.18 6.074,5.219 5.367,5.25 6.074,5.281 6.145,5.32 6.188,5.395 6.215,6.098 6.246,5.395 6.285,5.32 6.359,5.281 7.066,5.25 6.359,5.219 6.285,5.18 6.246,5.109 Z"
       style="fill:#edeef0;fill-opacity:1;fill-rule:nonzero;stroke:none"
       id="path69182" /><path
       d="m 10.312,4.891 -0.031,0.703 -0.039,0.074 -0.07,0.039 -0.707,0.031 0.707,0.032 0.07,0.039 0.039,0.074 0.031,0.703 L 10.344,5.883 10.383,5.809 10.457,5.77 11.16,5.738 10.457,5.707 10.383,5.668 10.344,5.594 Z"
       style="fill:#edeef0;fill-opacity:1;fill-rule:nonzero;stroke:none"
       id="path69184" /><path
       d="M 7.625,5.695 7.594,6.398 7.555,6.473 7.48,6.512 6.777,6.543 7.48,6.574 7.555,6.613 7.594,6.684 7.625,7.391 7.656,6.684 7.695,6.613 7.77,6.574 8.473,6.543 7.77,6.512 7.695,6.473 7.656,6.398 Z"
       style="fill:#edeef0;fill-opacity:1;fill-rule:nonzero;stroke:none"
       id="path69186" /><path
       d="M 5.043,6.602 5.012,7.305 4.973,7.379 4.898,7.418 4.195,7.449 4.898,7.48 4.973,7.52 5.012,7.59 5.043,8.297 5.074,7.59 5.113,7.52 5.188,7.48 5.891,7.449 5.188,7.418 5.113,7.379 5.074,7.305 Z"
       style="fill:#edeef0;fill-opacity:1;fill-rule:nonzero;stroke:none"
       id="path69188" /></g></svg>
